X:1     
T:The Noble Foxhunting
B:Garners Gay, EFDS, 1967
S:W Martin, Cornwall
F:http://www.folkinfo.org/songs
Z:Fred Hamer
M:2/4     
L:1/16 
K:A
z4 E2D2 |(C2E2) A2A2 |A4 E2D2 |(C2E2) A2A2 |
w:It was ear--y one morn-ing As I_ was a-
A2A2 A2A2 |B4 B2B2 |B4 A2B2 |c8 |
w:walk-ing, That I heard of a no-ble fox-hunt-
A4 A2B2 |c2B2 B2c2 |e4 e2c2 |A2A2 A2G2 |
w:ing, 'Twas be-twixt two gen-tle-men and the Duke of Well-ing-
F4 F2A2 |E2E2 A2B2 |c4 d2c2 |B8 |
w:ton, It was ear-ly as the day was a-dawn-
A4 A2B2 |c4 c4 |B2B2 B4 |(E2E2) E2D2 |
w:ing There was Di-do, Spen-di-go, Gent--ly was 
C2E2 HA2 C2 |D2D2 F2F2 |E2E2 d2c2 |B8 |
w:there--O! And Tra-vel-er that nev-er looked be-hind 
A4 A2B2 |c2c2 c4 |B2B2 A4 |E2E2 E2D2 |
w:him, There was Coun-ten-ance, Roll-in-ance, Bon-ny Lass and 
C2E2 HA2 C2 |D4 F2F2 |E4 d2c2 |B8 |
w:Jo-va-le Now these were the dogs that could find 
A8-|A4|]
w:him_.